X:10
T:Bread Street
M:4/4
L:1/8
C:Taz Tarry
S:Copyright B.Tarry 1992
N:revised 2017
R:Hornpipe
Q:1/4=120
K:D
|:(3ABc|d>cd>e f>dA>F|G>AB>G F>AE>G|F>AG>B A>Bc>A|c>de>f g2(3ABc|
d>cd>e f>dA>F|G>AB>G F>AE>G|F>AG>B A>Bc>A|e2d>cd2:|
|:D2|D>EF>A A>FE>D|F>GA>B A2A2|c>de>f g>ec>e|e>dc>B A>GF>E|
D>EF>A A>FE>D|F>GA>B A2A2|c>de>f g>ec>e|e2d>cd2:|

